symbols/web/military_tech/materialsymbolsoutlined/military_tech_grad200_20px.svg

<svg xmlns="http://www.w3.org/2000/svg" height="20" width="20"><path d="M5.542.958h8.916v7.146q0 .458-.177.844-.177.385-.51.573l-3.188 1.812.563 1.959h3.708l-3.042 2.104L13 19.042l-3.021-2.209-3 2.209 1.188-3.646-3.042-2.104h3.708l.584-1.959-3.146-1.854q-.354-.208-.542-.573-.187-.364-.187-.802ZM7.833 3.25v4.5l1.042.646V3.25Zm4.334 0h-1v5.104l1-.604Zm-2.146 2.917Zm-1.146-.355Zm2.292-.02Z"/></svg>

<svg xmlns="http://www.w3.org/2000/svg" height="20" width="20"><path d="M5.542 0.958H14.458V8.104Q14.458 8.562 14.281 8.948Q14.104 9.333 13.771 9.521L10.583 11.333L11.146 13.292H14.854L11.812 15.396L13 19.042L9.979 16.833L6.979 19.042L8.167 15.396L5.125 13.292H8.833L9.417 11.333L6.271 9.479Q5.917 9.271 5.729 8.906Q5.542 8.542 5.542 8.104ZM7.833 3.25V7.75Q7.833 7.75 7.833 7.75Q7.833 7.75 7.833 7.75L8.875 8.396V3.25ZM12.167 3.25H11.167V8.354L12.167 7.75Q12.167 7.75 12.167 7.75Q12.167 7.75 12.167 7.75ZM10.021 6.167ZM8.875 5.812Q8.875 5.812 8.875 5.812Q8.875 5.812 8.875 5.812ZM11.167 5.792Q11.167 5.792 11.167 5.792Q11.167 5.792 11.167 5.792Z"/></svg>
